X: 11433
T: The LITERARY DUSTMAN
Q: "Not too fast."
%R: jig, waltz
B: W. Hamilton "Universal Tune-Book" Vol. 1 Glasgow 1844 p.143 #3
S: http://imslp.org/wiki/Hamilton's_Universal_Tune-Book_(Various)
Z: 2016 John Chambers <jc:trillian.mit.edu>
M: 6/8
L: 1/8
K: D
% - - - - - - - - - - - - - - - - - - - - - - - - -
B/c/ |\
d2c B2c | d2e f2e | d2c B2d | c3 F2c |\
d2c B2c | d2e f2g | a2b a2f | e3 d2 H|]
c |\
d2e f2f | f2g f2e | d2e fgf | e3 A2c |\
d2e f2f | f2e f2g | a2b a2f | e3 "^D.C."d2 |]
% - - - - - - - - - - - - - - - - - - - - - - - - -

%%sep 1 1 500
%%sep 1 1 500

